X:1
T:Kirkbraddan, 11.11.11.11
T:Kirkbraddan, 11.11.11.11
T:Edward Charles Walker (1848–1872)
T:Public Domain Courtesy of the Cyber Hymnal™
C:Edward Charles Walker (1848–1872)
Z:Public Domain
Z:Courtesy of the Cyber Hymnal™
%%score ( 1 2 ) ( 3 4 )
L:1/8
Q:1/4=113
M:4/4
K:E
V:1 treble 
V:2 treble 
V:3 bass 
V:4 bass 
V:1
 [EG]2 [EB]2 [Dc]2 [DB]2 | [EB]4 [EG]4 | [CG]2 [CF]2 [DG]2 [DF]2 | E8 | [B,E]2 [CE]2 [DF]2 [EG]2 | %5
 [Ec]4 [EB]4 | [E^A]2 [Ge]2 [Fd]2 [Ec]2 | [DB]8 | [Ee]2 [Ec]2 [EB]2 [EG]2 | [EG]4 [DF]4 | %10
 E2 [EB]2 [EA]2 [DA]2 | [EG]8 | E3 F G2 c2 | B4 G4 | [EG]2 [EG]2 [DG]2 [DF]2 | E8 |] %16
V:2
 x8 | x8 | x8 | E8 | x8 | x8 | x8 | x8 | x8 | x8 | E2 x6 | x8 | E3 F G2 c2 | B4 G4 | x8 | E8 |] %16
V:3
 [E,B,]2 [E,G,]2 [B,,A,]2 [B,,A,]2 | [E,G,]4 [E,B,]4 | [A,,A,]2 [A,,A,]2 [B,,A,]2 [B,,A,]2 | %3
 [E,G,]8 | [E,G,]2 [C,G,]2 [B,,B,]2 [E,B,]2 | [E,A,]4 [E,G,]4 | [F,C]2 [F,^A,]2 [F,A,]2 [F,A,]2 | %7
 B,8 | [G,B,]2 (CD) [G,E]2 [E,B,]2 | [B,,A,]4 [B,,A,]4 | [E,G,]2 [=D,G,]2 [C,A,]2 [B,,B,]2 | %11
 [E,B,]8 | E,3 F, G,2 C2 | B,4 G,4 | [E,B,]2 [C,^A,]2 [B,,=A,]2 [B,,A,]2 | [E,G,]8 |] %16
V:4
 x8 | x8 | x8 | x8 | x8 | x8 | x8 | B,4 A,4 | x2 A,2 x4 | x8 | x8 | x8 | E,3 F, G,2 C2 | B,4 G,4 | %14
 x8 | x8 |] %16

